icons/svg/video-layout-equal_24.svg

<svg width="24" height="24" viewBox="0 0 24 24" xmlns="http://www.w3.org/2000/svg"><title>format/video-layout-equal_24</title><path d="M21.5 20l-9 0 0-7.5 10.5 0 0 6c0 .827-.673 1.5-1.5 1.5M1 18.5l0-6 10.5 0 0 7.5-9 0c-.827 0-1.5-.673-1.5-1.5M2.5 4l9 0 0 7.5-10.5 0 0-6C1 4.673 1.673 4 2.5 4M23 5.5l0 6-10.5 0 0-7.5 9 0c.827 0 1.5.673 1.5 1.5M21.5 3l-19 0C1.122 3 0 4.121 0 5.5l0 13C0 19.879 1.122 21 2.5 21l19 0c1.378 0 2.5-1.121 2.5-2.5l0-13C24 4.121 22.878 3 21.5 3" fill="#000" fill-rule="evenodd"/></svg>

<?xml version="1.0" encoding="utf-8"?>
<!-- Generator: Adobe Illustrator 25.0.0, SVG Export Plug-In . SVG Version: 6.00 Build 0)  -->
<svg version="1.1" id="Layer_1" xmlns="http://www.w3.org/2000/svg" xmlns:xlink="http://www.w3.org/1999/xlink" x="0px" y="0px"
	 viewBox="0 0 24 24" style="enable-background:new 0 0 24 24;" xml:space="preserve">
<style type="text/css">
	.st0{fill-rule:evenodd;clip-rule:evenodd;fill:#121212;}
</style>
<path class="st0" d="M21.5,20h-9v-7.5H23v6C23,19.3,22.3,20,21.5,20 M1,18.5v-6h10.5V20h-9C1.7,20,1,19.3,1,18.5 M2.5,4h9v7.5H1v-6
	C1,4.7,1.7,4,2.5,4 M23,5.5v6H12.5V4h9C22.3,4,23,4.7,23,5.5 M21.5,3h-19C1.1,3,0,4.1,0,5.5v13C0,19.9,1.1,21,2.5,21h19
	c1.4,0,2.5-1.1,2.5-2.5v-13C24,4.1,22.9,3,21.5,3"/>
</svg>
